X: 30385
T: Old Road To Garry, The
R: reel
M: 4/4
K: Cmajor
cE E/E/E GAce|dcAG AdcA|GE E/E/E c2 ge|f2 gf ecde|
cE E/E/E GAce|dcAG A/B/c de|f2 fd e2 ce|dagf ecde||
ge e/e/e cedc|Acfe dgef|gcge cege|f2 gf ecce|
ge e/e/e gece|fgaf dgeg|a2 gf edcA|GAcd ecde||

